icon-themes/breeze_svg/cmd/32/starshapes.signet.svg

<svg viewBox="0 0 32 32" xmlns="http://www.w3.org/2000/svg"><path d="m15.25 4c-1.553695 0-1.861449 2.7003243-3.296875 3.2949219-1.434534.5941476-3.5602582-1.0979956-4.6582031 0-1.0979451 1.0979956.5942029 3.2236091 0 4.6582031-.5945744 1.435194-3.2949219 1.743031-3.2949219 3.296875s2.7003475 1.859428 3.2949219 3.294922c.5942029 1.434294-1.0979451 3.560207 0 4.658203 1.0979449 1.097846 3.2236691-.594298 4.6582031 0 1.435426.594448 1.74318 3.296875 3.296875 3.296875 1.553694 0 1.859495-2.702427 3.294922-3.296875.027495-.027495.095361-.069502.134766-.023437l4.820312 4.820312 1.5-3 3-1.5c.01923-.041475-2.859789-2.135125-4.837891-3.630859-.083339-.468461-.123803-.926127.041016-1.324219.594697-1.435494 3.296875-1.741078 3.296875-3.294922s-2.702303-1.861681-3.296875-3.296875c-.594202-1.434594 1.097945-3.5602075 0-4.6582031s-3.223669.5941476-4.658203 0c-1.435427-.5945976-1.741228-3.2949219-3.294922-3.2949219zm0 6c2.899484 0 5.25 2.350517 5.25 5.25 0 2.899484-2.350516 5.25-5.25 5.25-2.899483 0-5.25-2.350516-5.25-5.25 0-2.899483 2.350517-5.25 5.25-5.25z" fill="#4d4d4d"/></svg>

<svg xmlns="http://www.w3.org/2000/svg" viewBox="0 0 32 32">
 <path 
     style="fill:#4d4d4d" 
     d="M 15.25 4 C 13.696305 4 13.388551 6.7003243 11.953125 7.2949219 C 10.518591 7.8890695 8.3928668 6.1969263 7.2949219 7.2949219 C 6.1969768 8.3929175 7.8891248 10.518531 7.2949219 11.953125 C 6.7003475 13.388319 4 13.696156 4 15.25 C 4 16.803844 6.7003475 17.109428 7.2949219 18.544922 C 7.8891248 19.979216 6.1969768 22.105129 7.2949219 23.203125 C 8.3928668 24.300971 10.518591 22.608827 11.953125 23.203125 C 13.388551 23.797573 13.696305 26.5 15.25 26.5 C 16.803694 26.5 17.109495 23.797573 18.544922 23.203125 C 18.572417 23.17563 18.640283 23.133623 18.679688 23.179688 L 23.5 28 L 25 25 L 28 23.5 C 28.01923 23.458525 25.140211 21.364875 23.162109 19.869141 C 23.07877 19.40068 23.038306 18.943014 23.203125 18.544922 C 23.797822 17.109428 26.5 16.803844 26.5 15.25 C 26.5 13.696156 23.797697 13.388319 23.203125 11.953125 C 22.608923 10.518531 24.30107 8.3929175 23.203125 7.2949219 C 22.10518 6.1969263 19.979456 7.8890695 18.544922 7.2949219 C 17.109495 6.7003243 16.803694 4 15.25 4 z M 15.25 10 C 18.149484 10 20.5 12.350517 20.5 15.25 C 20.5 18.149484 18.149484 20.5 15.25 20.5 C 12.350517 20.5 10 18.149484 10 15.25 C 10 12.350517 12.350517 10 15.25 10 z "
     />
</svg>
